app/client/src/assets/icons/blueprintjs/20px/cargo-ship.svg

<svg width="20" height="20" viewBox="0 0 20 20" fill="none" xmlns="http://www.w3.org/2000/svg">
<path fill-rule="evenodd" clip-rule="evenodd" d="M12.5 1.25H16.5C17.0523 1.25 17.5 1.69772 17.5 2.25V5H12.5V1.25ZM2.75001 5C2.61194 5 2.50001 5.11193 2.50001 5.25V11.25H0.883127C0.494479 11.25 0.254423 11.674 0.454381 12.0072L2.12612 14.7935C2.29657 15.0776 2.50994 15.327 2.75514 15.5354C2.29817 15.5917 1.79719 15.625 1.25001 15.625C0.904833 15.625 0.625011 15.9048 0.625011 16.25C0.625011 16.5952 0.904833 16.875 1.25001 16.875C3.8333 16.875 5.51791 16.1957 6.45162 15.7293C7.13904 16.1952 8.33284 16.875 10 16.875C11.6505 16.875 12.837 16.2087 13.5276 15.7433L13.533 15.7462C13.7772 15.8771 14.1337 16.0462 14.6023 16.2136C15.5406 16.5487 16.924 16.875 18.75 16.875C19.0952 16.875 19.375 16.5952 19.375 16.25C19.375 15.9048 19.0952 15.625 18.75 15.625C18.4312 15.625 18.128 15.6142 17.8405 15.5946C18.2382 15.2772 18.557 14.8575 18.7544 14.3642L19.7258 11.9357C19.8571 11.6073 19.6152 11.25 19.2615 11.25H5.00001V5.25C5.00001 5.11193 4.88808 5 4.75001 5H2.75001ZM6.20487 16.9491C6.41452 16.8368 6.66975 16.8532 6.86328 16.9914C7.43198 17.3976 8.4597 18.125 10 18.125C11.5403 18.125 12.568 17.3976 13.1367 16.9914C13.3532 16.8368 13.6437 16.8362 13.8608 16.9896L13.8683 16.9947C13.8766 17.0003 13.9133 17.0237 13.9133 17.0237C13.9566 17.0508 14.0266 17.0926 14.1233 17.1444C14.3165 17.2479 14.6163 17.3913 15.0227 17.5364C15.8345 17.8263 17.076 18.125 18.75 18.125C19.0952 18.125 19.375 18.4048 19.375 18.75C19.375 19.0952 19.0952 19.375 18.75 19.375C16.924 19.375 15.5406 19.0487 14.6023 18.7136C14.1337 18.5462 13.7772 18.3771 13.533 18.2462L13.5276 18.2433C12.837 18.7087 11.6505 19.375 10 19.375C8.33284 19.375 7.13904 18.6952 6.45162 18.2293C5.51791 18.6957 3.8333 19.375 1.25001 19.375C0.904833 19.375 0.625011 19.0952 0.625011 18.75C0.625011 18.4048 0.904833 18.125 1.25001 18.125C3.91084 18.125 5.47946 17.3377 6.20487 16.9491ZM17.5 6.25H12.5V10H16.5C17.0523 10 17.5 9.55229 17.5 9V6.25ZM6.25001 2.25C6.25001 1.69772 6.69773 1.25 7.25001 1.25H11.25V5H6.25001V2.25ZM11.25 6.25H6.25001V9C6.25001 9.55228 6.69773 10 7.25001 10H11.25V6.25Z" fill="#000000"/>
</svg>

<svg xmlns="http://www.w3.org/2000/svg" width="20" height="20"><path fill-rule="evenodd" d="M12.5 1.25h4a1 1 0 0 1 1 1V5h-5V1.25ZM2.75 5a.25.25 0 0 0-.25.25v6H.883a.5.5 0 0 0-.429.757l1.672 2.787c.17.284.384.533.63.741-.458.057-.959.09-1.506.09a.625.625 0 1 0 0 1.25c2.583 0 4.268-.68 5.202-1.146.687.466 1.88 1.146 3.548 1.146 1.65 0 2.837-.666 3.528-1.132l.005.003c.244.131.6.3 1.07.468.938.335 2.321.661 4.147.661a.625.625 0 1 0 0-1.25c-.319 0-.622-.01-.91-.03.398-.318.717-.738.914-1.23l.972-2.43a.5.5 0 0 0-.464-.685H5v-6A.25.25 0 0 0 4.75 5h-2Zm3.455 11.95a.625.625 0 0 1 .658.041c.569.407 1.597 1.134 3.137 1.134s2.568-.727 3.137-1.134a.625.625 0 0 1 .724-.001l.007.005.045.029c.044.027.114.069.21.12.194.104.493.247.9.392.812.29 2.053.589 3.727.589a.625.625 0 1 1 0 1.25c-1.826 0-3.21-.326-4.148-.661a7.894 7.894 0 0 1-1.069-.468l-.005-.003c-.691.466-1.878 1.132-3.528 1.132-1.667 0-2.861-.68-3.548-1.146-.934.467-2.619 1.146-5.202 1.146a.625.625 0 1 1 0-1.25c2.66 0 4.23-.787 4.955-1.176ZM17.5 6.25h-5V10h4a1 1 0 0 0 1-1V6.25Zm-11.25-4a1 1 0 0 1 1-1h4V5h-5V2.25Zm5 4h-5V9a1 1 0 0 0 1 1h4V6.25Z" clip-rule="evenodd"/></svg>
